assets/address_copy.svg

<svg fill="none" height="14" viewBox="0 0 14 14" width="14" xmlns="http://www.w3.org/2000/svg" xmlns:xlink="http://www.w3.org/1999/xlink"><mask id="a" fill="#000" height="14" maskUnits="userSpaceOnUse" width="14" x="0" y="0"><path d="m0 0h14v14h-14z" fill="#fff"/><path clip-rule="evenodd" d="m5.59992 1h6.99988c.1061 0 .2079.04214.2829.11714s.1171.17678.1171.28285v6.99989c0 .14294-.0763.27499-.2.34642-.1237.07142-.2762.07142-.4 0-.1237-.07143-.2-.20348-.2-.34642v-6.59989h-6.59988c-.14294 0-.27499-.07625-.34642-.2s-.07143-.27624 0-.39999.20347-.2.34642-.2zm-4.19993 1.60017h9.59981c.1061 0 .2079.04214.2829.11714s.1171.17678.1171.28285v9.59984c0 .1061-.0421.2079-.1171.2829s-.1768.1171-.2829.1171h-9.59981c-.10607 0-.20785-.0421-.28285-.1171s-.11714-.1768-.11714-.2829v-9.59984c0-.10607.04214-.20785.11714-.28285s.17678-.11714.28285-.11714zm.4 9.59983h8.79981v-8.79984h-8.79981z" fill="#000" fill-rule="evenodd"/></mask><g fill="#fff"><path clip-rule="evenodd" d="m5.59992 1h6.99988c.1061 0 .2079.04214.2829.11714s.1171.17678.1171.28285v6.99989c0 .14294-.0763.27499-.2.34642-.1237.07142-.2762.07142-.4 0-.1237-.07143-.2-.20348-.2-.34642v-6.59989h-6.59988c-.14294 0-.27499-.07625-.34642-.2s-.07143-.27624 0-.39999.20347-.2.34642-.2zm-4.19993 1.60017h9.59981c.1061 0 .2079.04214.2829.11714s.1171.17678.1171.28285v9.59984c0 .1061-.0421.2079-.1171.2829s-.1768.1171-.2829.1171h-9.59981c-.10607 0-.20785-.0421-.28285-.1171s-.11714-.1768-.11714-.2829v-9.59984c0-.10607.04214-.20785.11714-.28285s.17678-.11714.28285-.11714zm.4 9.59983h8.79981v-8.79984h-8.79981z" fill-rule="evenodd"/><path d="m12.8827 1.11714.1414-.14142v-.000001zm-.4829 7.62916-.1.17321zm-.2-6.94631h.2v-.2h-.2zm-6.9463-.2.17322-.09998zm0-.39999.17322.09998zm6.0292 1.51731-.1414.14142zm0 10.16559.1414.1414zm-10.16556 0-.141421.1414h.000001zm0-10.16559.14142.14142zm9.48266 9.48269v.2h.2v-.2zm-8.79981 0h-.2v.2h.2zm8.79981-8.79984h.2v-.2h-.2zm-8.79981 0v-.2h-.2v.2zm10.79981-2.60016h-6.99988v.4h6.99988zm.4243.175719c-.1125-.112522-.2652-.175719-.4243-.175719v.4c.0531 0 .104.02109.1414.05856zm.1757.424271c0-.15909-.0632-.31175-.1757-.42427l-.2829.28284c.0375.03748.0586.08838.0586.14143zm0 6.99989v-6.99989h-.4v6.99989zm-.3.51963c.1856-.10716.3-.30524.3-.51963h-.4c0 .07149-.0381.13751-.1.1732zm-.6 0c.1856.10714.4144.10714.6 0l-.2-.34643c-.0619.03572-.1381.03572-.2 0zm-.3-.51963c0 .21439.1144.41247.3.51963l.2-.34643c-.0619-.03569-.1-.1017-.1-.1732zm0-6.59989v6.59989h.4v-6.59989zm-6.39988.2h6.59988v-.4h-6.59988zm-.51963-.30002c.10715.18565.30524.30002.51963.30002v-.4c-.0715 0-.13751-.03814-.1732-.09998zm-.00001-.59995c-.10713.18561-.10714.41433.00001.59995l.34643-.19996c-.03572-.06188-.03572-.13815 0-.20003zm.51964-.30002c-.21439 0-.41248.114363-.51964.30002l.34644.19996c.03569-.06185.1017-.09998.1732-.09998zm5.39988 1.60017h-9.59981v.4h9.59981zm.4243.17572c-.1125-.11252-.2652-.17572-.4243-.17572v.4c.0531 0 .104.02109.1415.05856zm.1757.42427c0-.15909-.0632-.31175-.1757-.42427l-.2828.28284c.0374.03747.0585.08838.0585.14143zm0 9.59984v-9.59984h-.4v9.59984zm-.1757.4243c.1125-.1125.1757-.2652.1757-.4243h-.4c0 .0531-.0211.104-.0585.1414zm-.4243.1757c.1591 0 .3118-.0632.4243-.1757l-.2828-.2829c-.0375.0375-.0884.0586-.1415.0586zm-9.59981 0h9.59981v-.4h-9.59981zm-.42427-.1757c.11252.1125.26518.1757.42427.1757v-.4c-.05305 0-.10395-.0211-.14143-.0586zm-.17572-.4243c0 .1591.063197.3118.175719.4243l.282841-.2829c-.03747-.0374-.05856-.0883-.05856-.1414zm0-9.59984v9.59984h.4v-9.59984zm.17572-.42427c-.112523.11252-.17572.26518-.17572.42427h.4c0-.05305.02109-.10396.05856-.14143zm.42427-.17572c-.15908 0-.31175.0632-.42427.17572l.28284.28284c.03748-.03747.08838-.05856.14143-.05856zm9.19981 9.59983h-8.79981v.4h8.79981zm-.2-8.59984v8.79984h.4v-8.79984zm-8.59981.2h8.79981v-.4h-8.79981zm.2 8.59984v-8.79984h-.4v8.79984z" mask="url(#a)"/></g></svg>

<svg width="14" height="14" viewBox="0 0 14 14" fill="none" xmlns="http://www.w3.org/2000/svg">
<mask id="path-1-outside-1_4019_61451" maskUnits="userSpaceOnUse" x="0" y="0" width="14" height="14" fill="black">
<rect fill="white" width="14" height="14"/>
<path fill-rule="evenodd" clip-rule="evenodd" d="M5.59992 1H12.5998C12.7059 1 12.8077 1.04214 12.8827 1.11714C12.9577 1.19214 12.9998 1.29392 12.9998 1.39999V8.39988C12.9998 8.54282 12.9235 8.67487 12.7998 8.7463C12.6761 8.81772 12.5236 8.81772 12.3998 8.7463C12.2761 8.67487 12.1998 8.54282 12.1998 8.39988V1.79999H5.59992C5.45698 1.79999 5.32493 1.72374 5.2535 1.59999C5.18207 1.47624 5.18207 1.32375 5.2535 1.2C5.32493 1.07625 5.45697 1 5.59992 1ZM1.39999 2.60017H10.9998C11.1059 2.60017 11.2077 2.64231 11.2827 2.71731C11.3577 2.79231 11.3998 2.89409 11.3998 3.00016V12.6C11.3998 12.7061 11.3577 12.8079 11.2827 12.8829C11.2077 12.9579 11.1059 13 10.9998 13H1.39999C1.29392 13 1.19214 12.9579 1.11714 12.8829C1.04214 12.8079 1 12.7061 1 12.6V3.00016C1 2.89409 1.04214 2.79231 1.11714 2.71731C1.19214 2.64231 1.29392 2.60017 1.39999 2.60017ZM1.79999 12.2H10.5998V3.40016H1.79999V12.2Z"/>
</mask>
<path fill-rule="evenodd" clip-rule="evenodd" d="M5.59992 1H12.5998C12.7059 1 12.8077 1.04214 12.8827 1.11714C12.9577 1.19214 12.9998 1.29392 12.9998 1.39999V8.39988C12.9998 8.54282 12.9235 8.67487 12.7998 8.7463C12.6761 8.81772 12.5236 8.81772 12.3998 8.7463C12.2761 8.67487 12.1998 8.54282 12.1998 8.39988V1.79999H5.59992C5.45698 1.79999 5.32493 1.72374 5.2535 1.59999C5.18207 1.47624 5.18207 1.32375 5.2535 1.2C5.32493 1.07625 5.45697 1 5.59992 1ZM1.39999 2.60017H10.9998C11.1059 2.60017 11.2077 2.64231 11.2827 2.71731C11.3577 2.79231 11.3998 2.89409 11.3998 3.00016V12.6C11.3998 12.7061 11.3577 12.8079 11.2827 12.8829C11.2077 12.9579 11.1059 13 10.9998 13H1.39999C1.29392 13 1.19214 12.9579 1.11714 12.8829C1.04214 12.8079 1 12.7061 1 12.6V3.00016C1 2.89409 1.04214 2.79231 1.11714 2.71731C1.19214 2.64231 1.29392 2.60017 1.39999 2.60017ZM1.79999 12.2H10.5998V3.40016H1.79999V12.2Z" fill="white"/>
<path d="M12.8827 1.11714L13.0241 0.97572L13.0241 0.975719L12.8827 1.11714ZM12.3998 8.7463L12.2998 8.91951H12.2998L12.3998 8.7463ZM12.1998 1.79999H12.3998V1.59999H12.1998V1.79999ZM5.2535 1.59999L5.42672 1.50001L5.42672 1.50001L5.2535 1.59999ZM5.2535 1.2L5.42672 1.29998L5.42672 1.29998L5.2535 1.2ZM11.2827 2.71731L11.1413 2.85873V2.85873L11.2827 2.71731ZM11.2827 12.8829L11.4241 13.0243L11.4241 13.0243L11.2827 12.8829ZM1.11714 12.8829L0.975719 13.0243L0.97572 13.0243L1.11714 12.8829ZM1.11714 2.71731L1.25856 2.85873L1.25856 2.85873L1.11714 2.71731ZM10.5998 12.2V12.4H10.7998V12.2H10.5998ZM1.79999 12.2H1.59999V12.4H1.79999V12.2ZM10.5998 3.40016H10.7998V3.20016H10.5998V3.40016ZM1.79999 3.40016V3.20016H1.59999V3.40016H1.79999ZM12.5998 0.8H5.59992V1.2H12.5998V0.8ZM13.0241 0.975719C12.9116 0.863197 12.7589 0.8 12.5998 0.8V1.2C12.6529 1.2 12.7038 1.22109 12.7412 1.25856L13.0241 0.975719ZM13.1998 1.39999C13.1998 1.2409 13.1366 1.08824 13.0241 0.97572L12.7412 1.25856C12.7787 1.29604 12.7998 1.34694 12.7998 1.39999H13.1998ZM13.1998 8.39988V1.39999H12.7998V8.39988H13.1998ZM12.8998 8.91951C13.0854 8.81235 13.1998 8.61427 13.1998 8.39988H12.7998C12.7998 8.47137 12.7617 8.53739 12.6998 8.57308L12.8998 8.91951ZM12.2998 8.91951C12.4854 9.02665 12.7142 9.02665 12.8998 8.91951L12.6998 8.57308C12.6379 8.6088 12.5617 8.6088 12.4998 8.57308L12.2998 8.91951ZM11.9998 8.39988C11.9998 8.61427 12.1142 8.81235 12.2998 8.91951L12.4998 8.57308C12.4379 8.53739 12.3998 8.47138 12.3998 8.39988H11.9998ZM11.9998 1.79999V8.39988H12.3998V1.79999H11.9998ZM5.59992 1.99999H12.1998V1.59999H5.59992V1.99999ZM5.08029 1.69997C5.18744 1.88562 5.38553 1.99999 5.59992 1.99999V1.59999C5.52842 1.59999 5.46241 1.56185 5.42672 1.50001L5.08029 1.69997ZM5.08028 1.10002C4.97315 1.28563 4.97314 1.51435 5.08029 1.69997L5.42672 1.50001C5.391 1.43813 5.391 1.36186 5.42672 1.29998L5.08028 1.10002ZM5.59992 0.8C5.38553 0.8 5.18744 0.914363 5.08028 1.10002L5.42672 1.29998C5.46241 1.23813 5.52842 1.2 5.59992 1.2V0.8ZM10.9998 2.40017H1.39999V2.80017H10.9998V2.40017ZM11.4241 2.57589C11.3116 2.46337 11.1589 2.40017 10.9998 2.40017V2.80017C11.0529 2.80017 11.1038 2.82126 11.1413 2.85873L11.4241 2.57589ZM11.5998 3.00016C11.5998 2.84107 11.5366 2.68841 11.4241 2.57589L11.1413 2.85873C11.1787 2.8962 11.1998 2.94711 11.1998 3.00016H11.5998ZM11.5998 12.6V3.00016H11.1998V12.6H11.5998ZM11.4241 13.0243C11.5366 12.9118 11.5998 12.7591 11.5998 12.6H11.1998C11.1998 12.6531 11.1787 12.704 11.1413 12.7414L11.4241 13.0243ZM10.9998 13.2C11.1589 13.2 11.3116 13.1368 11.4241 13.0243L11.1413 12.7414C11.1038 12.7789 11.0529 12.8 10.9998 12.8V13.2ZM1.39999 13.2H10.9998V12.8H1.39999V13.2ZM0.97572 13.0243C1.08824 13.1368 1.2409 13.2 1.39999 13.2V12.8C1.34694 12.8 1.29604 12.7789 1.25856 12.7414L0.97572 13.0243ZM0.8 12.6C0.8 12.7591 0.863197 12.9118 0.975719 13.0243L1.25856 12.7414C1.22109 12.704 1.2 12.6531 1.2 12.6H0.8ZM0.8 3.00016V12.6H1.2V3.00016H0.8ZM0.97572 2.57589C0.863197 2.68841 0.8 2.84107 0.8 3.00016H1.2C1.2 2.94711 1.22109 2.8962 1.25856 2.85873L0.97572 2.57589ZM1.39999 2.40017C1.24091 2.40017 1.08824 2.46337 0.97572 2.57589L1.25856 2.85873C1.29604 2.82126 1.34694 2.80017 1.39999 2.80017V2.40017ZM10.5998 12H1.79999V12.4H10.5998V12ZM10.3998 3.40016V12.2H10.7998V3.40016H10.3998ZM1.79999 3.60016H10.5998V3.20016H1.79999V3.60016ZM1.99999 12.2V3.40016H1.59999V12.2H1.99999Z" fill="white" mask="url(#path-1-outside-1_4019_61451)"/>
</svg>
